Catalina-light/actions/16/go-down.svg

<svg xmlns="http://www.w3.org/2000/svg" width="16" height="16" viewBox="0 0 16 16">
 <defs>
  <style id="current-color-scheme" type="text/css">
   .ColorScheme-Text { color:#5c616c; } .ColorScheme-Highlight { color:#5294e2; }
  </style>
 </defs>
 <path style="fill:currentColor" class="ColorScheme-Text" d="M 7 2 L 7.0214844 10.460938 L 3.3867188 6.8261719 L 2 8.2109375 L 8 14.210938 L 14.041016 8.2109375 L 12.654297 6.8261719 L 9.0214844 10.460938 L 9 2 L 7 2 z"/>
</svg>

<svg width="16" height="16" viewBox="0 0 16 16" xmlns="http://www.w3.org/2000/svg">
<defs>
<style id="current-color-scheme" type="text/css">.ColorScheme-Text { color:#5c616c; } .ColorScheme-Highlight { color:#5294e2; }</style>
</defs>
<path class="ColorScheme-Text" d="m7 2 0.021484 8.4609-3.6348-3.6348-1.3867 1.3848 6 6 6.041-6-1.3867-1.3848-3.6328 3.6348-0.021484-8.4609h-2z" fill="#363636"/>
</svg>
